X:4
T:MERRY NIGHT AT TUMBLE BRIG -- REEL.
B:Coles
Z:John Walsh <walsh:mat:h.ubc.ca>
R:reel
C:SCOTCH.
M:C|
L:1/8
K:Em
vEBGB E/E/E "tr"B2|vFD"4"AF DEFD|EBGB E/E/E "tr"B2|FD"4"AF (BE)E2|\
vEBGB E/E/E "tr"B2|FD"4"AF DEFD|EB,GE FD"4"AF|GBAF E/E/E E2||
vefge bgfe|Bgfg afdf|efge bgfe|Bagf {f}e2 e2|\
efge bgfe|Bgfg afdf|bfge fd"4"eF|GBAF E/E/E E2||
